!!!COM: Palestrina, Giovanni Perluigi da
!!!OPR: Missa Octavi toni
!!!OMD: Credo
!!!OTL: Crucifixus
**kern	**kern	**kern	**kern
*Itenor	*Itenor	*Icalto	*Icant
!Tenor 2	!Tenor 1	!Altus	!Cantus
*clefGv2	*clefGv2	*clefG2	*clefG2
*k[]	*k[]	*k[]	*k[]
*G:mix	*G:mix	*G:mix	*G:mix
*M4/2	*M4/2	*M4/2	*M4/2
=79	=79	=79	=79
0d	0G	0g	0b
=80	=80	=80	=80
1d	1G	1g	1b
1e	1c	1g	1cc
=81	=81	=81	=81
2c	2.F	2f	0a
1d	.	1f	.
.	4G	.	.
.	1A	.	.
2c	.	2e	.
=82	=82	=82	=82
2B	1D	2d	2r
2A	.	2f	1a
2.c	1r	2.e	.
.	.	.	2g
4B	.	4d	.
=83	=83	=83	=83
1A	1r	4c	2f
.	.	4B	.
.	.	1c	2e
1G	2r	.	2.g
.	[2d	2B	.
.	.	.	4f
=84	=84	=84	=84
0r	2d]	2r	1e
.	2c	1g	.
.	2B	.	2d
.	2A	2f	[2a
=85	=85	=85	=85
1r	2c	2e	2a]
.	2B	2d	2g
2r	2.A	2f	[1cc
[2A	.	4e	.
.	4B	4d	.
=86	=86	=86	=86
2A]	4c	1e	2cc]
.	4d	.	.
2G	2.e	.	2b
2F	.	2.f	[1a
.	4d	.	.
2D	[2d	.	.
.	.	4d	.
=87	=87	=87	=87
1A	2d]	1e	1a]
.	2c#	.	.
1D	1d	1f#	1a
=88	=88	=88	=88
1G	1d	1g	1b
1c	[1e	[1g	[1cc
=89	=89	=89	=89
1G	2e]	2g]	2cc]
.	2d	2g	2b
2A	2c	2e	2a
2E	2B	2e	2g#
=90	=90	=90	=90
4F	4A	4c	0a
4E	4G	8d	.
.	.	8e	.
4D	4F	1f	.
4E	4G	.	.
4F	4A	.	.
4G	4B	.	.
4A	[2c	[2e	.
4B	.	.	.
=91	=91	=91	=91
4c	4c]	4e]	[0g
4d	4B	4d	.
4e	2c	2.c	.
4c	.	.	.
1d	1G	.	.
.	.	8B	.
.	.	8A	.
.	.	2B	.
=92	=92	=92	=92
1e	1r	1c	1g]
[1c	1C	[1e	[1g
=93	=93	=93	=93
1c]	0G	1e]	1g]
1B	.	1d	1g
=94	=94	=94	=94
2.d	2.D	2.f	1.a
4c	4E	4e	.
2A	2F	2c	.
2B	2G	[2e	2g
=95	=95	=95	=95
2c	1A	4e]	2e
.	.	4d	.
2A	.	2c	2.f
2B	2G	2B	.
.	.	.	4e
[2c	2E	2G	[2e
=96	=96	=96	=96
4c]	1F	1A	4e]
4B	.	.	8d
.	.	.	8c
1A	.	.	2d
.	[1E	1B	1e
4G#	.	.	.
4F#	.	.	.
=97	=97	=97	=97
1G#	1E]	2r	2r
.	.	2e	2b
1A	1r	2.e	2.cc
.	.	4f	4a
=98	=98	=98	=98
0r	0r	2g	2b
.	.	2e	2cc
.	.	2.f	2.a
.	.	4d	4f
=99	=99	=99	=99
0r	0r	2e	2g
.	.	2.f	4a
.	.	.	4g
.	.	.	4a
.	.	4e	4b
.	.	4e	[2cc
.	.	8d	.
.	.	8c	.
=100	=100	=100	=100
1r	2r	2.d	4cc]
.	.	.	4b
.	2G	.	4b
.	.	4e	8a
.	.	.	8g
2r	2F	[1f	[1a
2d	2D	.	.
=101	=101	=101	=101
2c	2.F	1f]	0a]
2A	.	.	.
.	4G	.	.
2.c	4A	1e	.
.	4G	.	.
.	4A	.	.
4d	4B	.	.
=102	=102	=102	=102
4e	4c	1r	0g
4d	4d	.	.
4c	1e	.	.
4B	.	.	.
2c	.	2r	.
2B	2d	2g	.
=103	=103	=103	=103
1A	1c	2f	2r
.	.	2e	2cc
1G	1d	2.g	2b
.	.	.	2g
.	.	4f	.
=104	=104	=104	=104
0r	0r	4e	2b
.	.	4d	.
.	.	4c	2.cc
.	.	4B	.
.	.	2A	.
.	.	.	4b
.	.	[2d	4a
.	.	.	4g
=105	=105	=105	=105
1r	0r	4d]	4f
.	.	4c	4e
.	.	1c	4e
.	.	.	8d
.	.	.	8c
1G	.	.	1d
.	.	2B	.
=106	=106	=106	=106
1A	1r	2r	1c
.	.	2c	.
1B	1G	2d	1r
.	.	[2e	.
=107	=107	=107	=107
1c	1A	2e]	0r
.	.	2f	.
2d	2B	1g	.
[2e	[2c	.	.
=108	=108	=108	=108
4e]	2c]	1g	1r
8d	.	.	.
8c	.	.	.
2B	2d	.	.
2c	2e	1a	2r
[2d	[2f	.	2d
=109	=109	=109	=109
4d]	4f]	1d	2f
4c	4e	.	.
2B-	1d	.	2g
1A	.	1e	2a
.	2c	.	2a
=110	=110	=110	=110
1D	2.d	2.f	4a
.	.	.	4g
.	.	.	4a
.	4c	4g	4b
1r	4A	2a	4cc
.	4B	.	4dd
.	2c	[2g	[2ee
=111	=111	=111	=111
1r	1d	4g]	2ee]
.	.	4f	.
.	.	4f	1dd
.	.	8e	.
.	.	8d	.
2r	1A	2e	.
2A	.	2e	4cc
.	.	.	4b
=112	=112	=112	=112
2A	1r	2e	2cc
2A	.	2e	2a
2.d	2r	2.f#	2a
.	2d	.	2a
4d	.	4f#	.
=113	=113	=113	=113
1G	2d	0g	2.b
.	2d	.	.
.	.	.	4b
1c	2.e	.	1cc
.	4c	.	.
=114	=114	=114	=114
0F	2c	1.f	0a
.	2.d	.	.
.	4c	.	.
.	[2c	2e	.
=115	=115	=115	=115
2r	2c]	0d	1g
2G	4B	.	.
.	4A	.	.
2.G	1B	.	2r
.	.	.	2g
4G	.	.	.
=116	=116	=116	=116
1C	2r	1e	2.g
.	2c	.	.
.	.	.	4g
2r	2.c	2.e	[1g
[2c	.	.	.
.	4c	4e	.
=117	=117	=117	=117
4c]	1G	2d	2g]
8B	.	.	.
8A	.	.	.
2B	.	2d	2g
2c	1r	2e	2a
2d	.	2f#	2a
=118	=118	=118	=118
2G	2r	2g	2b
2G	2d	2g	2b
2.G	2.d	2.g	2.b
4G	4d	4g	4b
=119	=119	=119	=119
1G	2d	1g	1b
.	2.e	.	.
[1A	.	[1e	[1cc
.	4d	.	.
.	4c	.	.
.	4B	.	.
=120	=120	=120	=120
2A]	2A	2e]	2cc]
2B	2G	2e	2b
1c	1A	1e	1a
=121	=121	=121	=121
2c	0F	2f	1a
2.c	.	4F	.
.	.	4G	.
.	.	4A	2.cc
4B	.	4B	.
4A	.	[2c	.
4G	.	.	4b
=122	=122	=122	=122
4F	1r	2c]	4a
4E	.	.	4g
4D	.	2d	1f
4E	.	.	.
4F	2.c	1A	.
4G	.	.	.
2A	.	.	2e
.	4B	.	.
=123	=123	=123	=123
1F	4A	2.c	1.a
.	4G	.	.
.	1F	.	.
.	.	4B	.
2r	.	4c	.
.	.	4d	.
[2c	2E	[2e	4g
.	.	.	4f
=124	=124	=124	=124
4c]	1A	4e]	2e
4B	.	4d	.
4c	.	4e	1cc
4d	.	4f	.
2e	1G	2.g	.
[2d	.	.	2b-
.	.	4f	.
=125	=125	=125	=125
2d]	1.A	1.e	1.a
4c#	.	.	.
4B	.	.	.
2c#	.	.	.
2c#	2A	2e	2a
=126	=126	=126	=126
1d	1D	2d	1f#
.	.	1A	.
2r	2r	.	2r
[2A	[2D	2A	[2f#
=127	=127	=127	=127
2A]	2D]	1.d	2f#]
2A	2D	.	2f#
1B	1G	.	1g
.	.	2G	.
=128	=128	=128	=128
1c	2C	1g	1e
.	1c	.	.
1r	.	2a	1r
.	2d	2f	.
=129	=129	=129	=129
1r	2B	4g	0r
.	.	4f	.
.	4c	4e	.
.	4B	4d	.
1c	4A	2e	.
.	4G	.	.
.	4F	[2f	.
.	4E	.	.
=130	=130	=130	=130
2d	2D	2f]	0r
2B	2G	4e	.
.	.	4d	.
4c	2C	4e	.
4B	.	4d	.
4A	4F	4c	.
4G	4G	4B	.
=131	=131	=131	=131
2F	4A	4c	2r
.	4B	4d	.
2E	2c	2e	2g
2F	2A	1c	2a
2A	[2c	.	2f
=132	=132	=132	=132
1G	4c]	1d	2.g
.	8B	.	.
.	8A	.	.
.	2B	.	.
.	.	.	4f
1C	1c	2r	4e
.	.	.	4d
.	.	2g	2e
=133	=133	=133	=133
0r	0r	2a	2f
.	.	2f	2d
.	.	4g	2e
.	.	4f	.
.	.	4e	4c
.	.	4d	4d
=134	=134	=134	=134
1r	0r	4c	4e
.	.	4d	4f
.	.	4e	4g
.	.	4c	4a
2r	.	2.d	4b
.	.	.	4cc
[2G	.	.	[2dd
.	.	4B	.
=135	=135	=135	=135
2G]	1r	1e	2dd]
2A	.	.	1cc
2F	2r	1d	.
[2G	[2d	.	4b
.	.	.	4a
=136	=136	=136	=136
4G]	2d]	1G	2b
4F	.	.	.
4E	1e	.	1g
4D	.	.	.
2E	.	1r	.
2F	2c	.	2a
=137	=137	=137	=137
2D	4d	1r	2f
.	4c	.	.
2.G	4B	.	4g
.	4A	.	4a
.	2G	2r	4b
4E	.	.	4cc
2F#	2A	2d	[2a
=138	=138	=138	=138
2G	2B	2e	4a]
.	.	.	4g
2E	4A	2c	1g
.	4G	.	.
1D	1A	2.d	.
.	.	.	2f#
.	.	4c	.
=139	=139	=139	=139
2.E	2.G	4B	[0g
.	.	4A	.
.	.	2B	.
4D	8A	.	.
.	8B	.	.
4C	1c	1e	.
4D	.	.	.
4E	.	.	.
4F	.	.	.
=140	=140	=140	=140
0G	0B	0d	0g]
*-	*-	*-	*-
!!!CDT: 1525/^1526/-1594/2/2
!!!OCY: Italia
!!!AGN: Mass (Tenor)
!!!AST: renaissance, vocal
!!!ASW: Hymn
!!!PWK: Masses, Book 11
!!!RNB: Cadence finals: A,C
!!!YOR: Le Opere Complete, v. 28, p. 114
!!!YOO: Rome, Italy: Fratelli Scalera
!!!END: 1992//
!!!EED: John Miller
!!!YEC: Copyright 2000, John Miller
!!!YEN: United States of America
!!!YEM: Rights to all derivative electronic formats reserved.
!!!YEM: Refer to licensing agreement for further details.
!!!YEM: This file must be accompanied by the licensing agreement.
!!!YEM: A copy of the licensing agreement may be found at http://www.music-cog.ohio-state.edu/HumdrumDatabases/Palestrina/license.txt
!!!EMD: converted to Humdrum by Bret Aarden
